X:13378
T:Pols fr R\o{}ros
R:Pols
O:Norway
M:3/4
K:D
d>(d d)c A2|f>(f f)d e>f|\
(3geg (3fdf e>c|(3def d<c A2|\
d>(d d)c A2|f>(f f)d e>f|
(3geg (3fdf e>c|(3def d4::\
a>(a a)f g>e|f>(f f)d e>f|
(3geg (3fdf e>c|(3def d<c A2|\
a>(a a)f g>e|f>(f f)d e>f|\
(3geg (3fdf e>c|(3def d4:|\
